assets/images/system/icon/services/car-icon.svg

<svg width="70" height="70" viewBox="0 0 70 70" fill="none" xmlns="http://www.w3.org/2000/svg">
<path d="M32.0833 32.084V23.334H35.7204C38.2929 23.334 39.3225 24.2002 41.0521 25.9852C42.3704 27.3415 46.6667 32.084 46.6667 32.084H32.0833ZM29.1667 23.334H22.6246C20.6179 23.334 19.5592 23.9815 18.6083 25.0286C17.6867 26.0436 15.9979 27.7936 14.2158 29.9023C19.2296 31.7807 26.0429 32.084 29.1667 32.084V23.334ZM70 38.3869C70 30.1532 64.0792 28.4411 61.8508 27.7965C58.52 26.8311 57.0267 26.4111 53.0104 25.4807C51.4062 23.8911 47.0254 19.5423 46.0425 18.5507L45.7829 18.2852C43.8404 16.3048 41.6383 14.584 36.5312 14.584H14.2479C12.6525 14.584 11.9408 15.914 13.5071 17.3373C11.9496 18.6848 7.83708 22.3132 6.68208 23.4857C2.64542 27.5748 0 30.719 0 36.9111C0 44.089 3.96958 49.3302 9.27208 49.5461C10.4679 52.9557 13.6821 55.4173 17.5 55.4173C21.3033 55.4173 24.5088 52.9732 25.7133 49.584H44.2837C45.4883 52.9732 48.6938 55.4173 52.4971 55.4173C56.3121 55.4173 59.5233 52.9586 60.7221 49.5548C66.3629 49.3915 70 45.1652 70 38.3869ZM17.5 50.1673C15.5692 50.1673 14 48.5982 14 46.6673C14 44.7365 15.5692 43.1673 17.5 43.1673C19.4308 43.1673 21 44.7365 21 46.6673C21 48.5982 19.4308 50.1673 17.5 50.1673ZM52.5 50.1673C50.5692 50.1673 49 48.5982 49 46.6673C49 44.7365 50.5692 43.1673 52.5 43.1673C54.4308 43.1673 56 44.7365 56 46.6673C56 48.5982 54.4308 50.1673 52.5 50.1673ZM60.76 43.8965C59.5963 40.4315 56.3588 37.9173 52.5 37.9173C48.6296 37.9173 45.3833 40.449 44.2283 43.9315H25.7717C24.6167 40.449 21.3704 37.9173 17.5 37.9173C13.6529 37.9173 10.4242 40.4169 9.24875 43.8673C7.53958 43.5348 5.83333 40.8427 5.83333 36.9111C5.83333 33.0173 7.20417 31.2586 10.8325 27.5807C12.9471 25.4369 14.6533 24.0544 17.4329 21.6715C18.4246 20.8227 19.6904 20.4115 20.9971 20.4173H36.085C39.6433 20.4173 40.6846 21.5402 42.2567 23.019C43.4788 24.1652 50.0792 30.7919 50.0792 30.7919C50.0792 30.7919 56.7962 32.4077 60.2292 33.4023C62.6792 34.1111 64.1667 34.7994 64.1667 38.3898C64.1667 41.8782 63.0117 43.7157 60.76 43.8965Z" fill="#017113"/>
</svg>

<svg xmlns="http://www.w3.org/2000/svg" width="70" height="70" fill="none" xmlns:v="https://vecta.io/nano"><path d="M32.083 32.084v-8.75h3.637c2.573 0 3.602.866 5.332 2.651l5.615 6.099H32.083zm-2.917-8.75h-6.542c-2.007 0-3.065.648-4.016 1.695l-4.392 4.874c5.014 1.878 11.827 2.182 14.951 2.182v-8.75zM70 38.387c0-8.234-5.921-9.946-8.149-10.59-3.331-.965-4.824-1.385-8.84-2.316l-6.968-6.93-.26-.265c-1.942-1.98-4.145-3.701-9.252-3.701H14.248c-1.595 0-2.307 1.33-.741 2.753-1.557 1.348-5.67 4.976-6.825 6.148C2.645 27.575 0 30.719 0 36.911c0 7.178 3.97 12.419 9.272 12.635 1.196 3.41 4.41 5.871 8.228 5.871 3.803 0 7.009-2.444 8.213-5.833h18.57c1.205 3.389 4.41 5.833 8.213 5.833 3.815 0 7.026-2.459 8.225-5.862C66.363 49.392 70 45.165 70 38.387zm-52.5 11.78c-1.931 0-3.5-1.569-3.5-3.5s1.569-3.5 3.5-3.5 3.5 1.569 3.5 3.5-1.569 3.5-3.5 3.5zm35 0c-1.931 0-3.5-1.569-3.5-3.5s1.569-3.5 3.5-3.5 3.5 1.569 3.5 3.5-1.569 3.5-3.5 3.5zm8.26-6.271c-1.164-3.465-4.401-5.979-8.26-5.979-3.87 0-7.117 2.532-8.272 6.014H25.772c-1.155-3.483-4.401-6.014-8.272-6.014-3.847 0-7.076 2.5-8.251 5.95-1.709-.333-3.415-3.025-3.415-6.956 0-3.894 1.371-5.652 4.999-9.33 2.115-2.144 3.821-3.526 6.6-5.909.992-.849 2.258-1.26 3.564-1.254h15.088c3.558 0 4.6 1.123 6.172 2.602 1.222 1.146 7.822 7.773 7.822 7.773s6.717 1.616 10.15 2.61c2.45.709 3.938 1.397 3.938 4.988 0 3.488-1.155 5.326-3.407 5.507z" fill="#017113"/></svg>
